X:1
T:[ID 5-17]
T:[ID 5-17]
T:Bezeichnung standardisiert: Lott ist tot ; Schwabisch In dieser Quelle auch als: Schw\"abisch
T:Urheber unbekannt Erstbeleg: 1773 (Datum in der schriftlichen Quelle) Datum in der hier transkribierten schriftlichen Quelle: 1776 - 1791
C:Urheber unbekannt
C:Erstbeleg: 1773 (Datum in der schriftlichen Quelle)
C:Datum in der hier transkribierten schriftlichen Quelle: 1776 - 1791
L:1/8
M:3/8
K:G
V:1 treble 
V:1
 g2 g | f2 f | e2 e | d2 B | c(e/c/)A | B(d/B/)G | AGF |"^[sic]" G2 G :: G/A/BB | A/B/cc | %10
 BG/A/B/c/ | d2 B | c(e/c/)A | B(d/B/)G | AGF | G2 G :| %16

